X:0440
T:Christmas day in the Morning.
M:6/8
L:1/8
Q:3/8=120
I: || ::
Z:Jack Campin * www.campin.me.uk * 2009
K:G
D2E G2A|B2B BAG|B2B BAG|A2A  AGE|
D2E G2A|c2B c2e|dBd A2G|E3   G3||
ded dBG|ABd e3 |ded dBG|DE=F E2D|
ded dBG|ABd efg|dBd A2G|E3   G3|]

